!!!OTL: Folk song Number 11
!!!CNT: Chinese
**kern
*k[f#c#g#d#]
*M2/4
=1
8g#
8g#
8cc#
8ee
=2
8b
[(8cc#
8cc#]
16b
16cc#)
=3
(4..b
16cc#)
=4
8g#
8g#
8cc#
8ee
=5
8b
[(8cc#
8cc#]
16b
16cc#)
=6
(4..b
16cc#)
=7
8g#
8g#
8cc#
8ee
=8
4b
(16cc#
16ee)
(16cc#
16b)
!! page 8
=9
8g#
(16g#
16f#)
4e
=10
(16f#
16g#
8cc#)
4b
=11
16cc#
32b
32b
16g#
16e
16F#
(16g#
16f#
16e)
=12
2e
=13
(16f#
16g#
8cc#)
4b
=14
16cc#
32b
32b
16g#
16e
16F#
(16g#
16f#
16e)
=15
2e
==
*-
!!!PPR: Yin yueh ch'u pan she
!!!OPR: Chung-kuo min ko Chung-kuo yin yueh yen chiu so pien [Chinese folk songs]
!!!OCL: Chung-kuo yin yueh yen chiu so
!!!PPP: Beijing, China
!!!PDT: 1959///
!!!SML: Edward Johnson Library, University of Toronto M1804.C4694C5
!!!PPG: pp.7-8
!!!ENC: David Huron
!!!EMD: Paul von Hippel updated this file in the following ways (1998/9/29/):
!!!EMD:  (1) changed the representation of slurs from curly braces to parentheses 
!!!EMD:  (2) changed freeform comments into reference records and tandem interpretations
!!!EMD:  (3) corrected the author, title, author, and call number of the printed source 
!!!EEV: Version 2.0
